themes/vice/icons/64x64/camera-photo.svg

<svg xmlns="http://www.w3.org/2000/svg" width="64" height="64" version="1">
 <path style="opacity:0.2" d="M 22.270518,9.441392 18.475782,14 H 9.6 C 6.52,14 4,16.456222 4,19.511778 V 52.444444 C 4,55.5 6.52,58 9.6,58 H 54.4 C 57.48,58 60,55.5 60,52.444444 V 19.511778 C 60,16.456222 57.479962,14.015191 54.4,14 H 45.524218 L 41.678122,9.38571 C 40.4,8 40.4,8 39,8 H 25 c -1.4,0 -1.4,0 -2.729482,1.441392 z"/>
 <path style="fill:#4f4f4f" d="M 22.270518,8.4413922 18.475782,13 H 9.6 C 6.52,13 4,15.456222 4,18.511778 V 51.444444 C 4,54.5 6.52,57 9.6,57 H 54.4 C 57.48,57 60,54.5 60,51.444444 V 18.511778 C 60,15.456222 57.479962,13.015191 54.4,13 H 45.524218 L 41.678122,8.3857104 C 40.4,7 40.4,7 39,7 H 25 c -1.4,0 -1.4,0 -2.729482,1.4413922 z"/>
 <path style="opacity:0.2" d="M 22.270518,8.4413922 18.475782,13 H 9.6 C 6.52,13 4,15.456222 4,18.511778 V 21 H 60 V 18.511778 C 60,15.456222 57.479962,13.015191 54.4,13 H 45.524218 L 41.678122,8.3857104 C 40.4,7 40.4,7 39,7 H 25 c -1.4,0 -1.4,0 -2.729482,1.4413922 z"/>
 <circle style="opacity:0.1" cx="55" cy="19" r="3"/>
 <circle style="fill:#ffffff" cx="55" cy="18" r="3"/>
 <circle style="fill:#2f2f2f" cx="32" cy="-35" r="18" transform="scale(1,-1)"/>
 <circle style="opacity:0.2" cx="32" cy="-36" r="14" transform="scale(1,-1)"/>
 <circle style="fill:#00b1c4" cx="32" cy="-35" r="14" transform="scale(1,-1)"/>
 <circle style="opacity:0.2" cx="32" cy="36" r="8"/>
 <circle style="fill:#70f4ff" cx="32" cy="35" r="8"/>
 <path style="opacity:0.1;fill:#ffffff" d="M 25 7 C 23.6 7 23.599013 7.0000141 22.269531 8.4414062 L 18.476562 13 L 9.6015625 13 C 6.5215625 13 4 15.456163 4 18.511719 L 4 19.511719 C 4 16.456163 6.5215625 14 9.6015625 14 L 18.476562 14 L 22.269531 9.4414062 C 23.599013 8.000014 23.6 8 25 8 L 39 8 C 40.4 8 40.401566 8.0010083 41.679688 9.3867188 L 45.523438 14 L 54.398438 14 C 57.4784 14.015191 60 16.456163 60 19.511719 L 60 18.511719 C 60 15.456163 57.4784 13.015191 54.398438 13 L 45.523438 13 L 41.679688 8.3867188 C 40.401566 7.0010083 40.4 7 39 7 L 25 7 z"/>
 <path style="opacity:0.2;fill:#ffffff" d="M 31.878906 27 A 8 8 0 0 0 24 35 A 8 8 0 0 0 24.015625 35.505859 A 8 8 0 0 1 31.878906 28 A 8 8 0 0 1 32 28 A 8 8 0 0 1 39.984375 35.498047 A 8 8 0 0 0 40 35 A 8 8 0 0 0 32 27 A 8 8 0 0 0 31.878906 27 z"/>
</svg>

<svg xmlns="http://www.w3.org/2000/svg" width="64" height="64" version="1">
    <path style="opacity:.2" d="M22.27 9.441 18.477 14H9.6C6.52 14 4 16.456 4 19.512v32.932C4 55.5 6.52 58 9.6 58h44.8c3.08 0 5.6-2.5 5.6-5.556V19.512c0-3.056-2.52-5.497-5.6-5.512h-8.876l-3.846-4.614C40.4 8 40.4 8 39 8H25c-1.4 0-1.4 0-2.73 1.441z"/>
    <path style="fill:#4f4f4f" d="M22.27 8.441 18.477 13H9.6C6.52 13 4 15.456 4 18.512v32.932C4 54.5 6.52 57 9.6 57h44.8c3.08 0 5.6-2.5 5.6-5.556V18.512c0-3.056-2.52-5.497-5.6-5.512h-8.876l-3.846-4.614C40.4 7 40.4 7 39 7H25c-1.4 0-1.4 0-2.73 1.441z"/>
    <path style="opacity:.2" d="M22.27 8.441 18.477 13H9.6C6.52 13 4 15.456 4 18.512V21h56v-2.488c0-3.056-2.52-5.497-5.6-5.512h-8.876l-3.846-4.614C40.4 7 40.4 7 39 7H25c-1.4 0-1.4 0-2.73 1.441z"/>
    <circle style="opacity:.1" cx="55" cy="19" r="3"/>
    <circle style="fill:#fff" cx="55" cy="18" r="3"/>
    <circle style="fill:#2f2f2f" cx="32" cy="-35" r="18" transform="scale(1 -1)"/>
    <circle style="opacity:.2" cx="32" cy="-36" r="14" transform="scale(1 -1)"/>
    <circle style="fill:#00b1c4" cx="32" cy="-35" r="14" transform="scale(1 -1)"/>
    <circle style="opacity:.2" cx="32" cy="36" r="8"/>
    <circle style="fill:#70f4ff" cx="32" cy="35" r="8"/>
    <path style="opacity:.1;fill:#fff" d="M25 7c-1.4 0-1.401 0-2.73 1.441L18.477 13H9.602C6.522 13 4 15.456 4 18.512v1C4 16.456 6.522 14 9.602 14h8.875l3.793-4.559C23.599 8 23.6 8 25 8h14c1.4 0 1.402.001 2.68 1.387L45.523 14h8.875c3.08.015 5.602 2.456 5.602 5.512v-1c0-3.056-2.522-5.497-5.602-5.512h-8.875L41.68 8.387C40.402 7 40.4 7 39 7H25z"/>
    <path style="opacity:.2;fill:#fff" d="M31.879 27A8 8 0 0 0 24 35a8 8 0 0 0 .016.506A8 8 0 0 1 31.879 28 8 8 0 0 1 32 28a8 8 0 0 1 7.984 7.498A8 8 0 0 0 40 35a8 8 0 0 0-8-8 8 8 0 0 0-.121 0z"/>
</svg>
